X:1
T:AULD LANG SYNE
M:C
L:1/8
Q:80
C:Traditional
S:Hymn
K:HP
|: e | \
{g}A2-A{GAG}A{g}A2{d}c2 | \
{gBd}B2-B{e}A{GdG}B2{gcd}c3/2B/2 | \
{g}A2-A{GAG}A{gcd}c2e2 |
{gfg}f2-f2{e}f2{g}f2 | \
{gef}e2-ec{gcd}c2{e}A2 | \
{gBd}B2-B{e}A{GdG}B2{gcd}c3/2B/2 |
{g}A2-Af{gfg}f2e2 | \
{g}A2-A2{GAG}A2 :: \
a |
{ef}e2-ec{gcd}c2{e}A2 | \
{gBd}B2-B{e}A{GdG}B2a2 | \
{ef}e2-ec{gcd}c2e2 |
{gfg}f2-f2{e}f2{g}f2 | \
{gef}e2-ec{gcd}c2{e}A2 | \
{gBd}B2-B{e}A{GdG}B2{gcd}c3/2B/2 |
{g}A2-Af{gfg}f2e2 | \
{g}A2-A2{GAG}A2 :|
